X:734
T:Reel 734
M:4/4
K:Cmaj
L:1/8
GF|EFGA GFEF|GEcE eEcE|EFGA GFEF|Dddc BAGF|EFGA GFEF|GEcE eEcE|EFED cEEc|dcBA GABc|dcBd cAGE|DdBd cBAG|EGcB cABc|dBcA GFEF|Dddc ADFG|EDdB cBAG|E2AB cBcA|GBcA GABc|
